src/icons/deployment-queued-new.svg

<?xml version="1.0" encoding="utf-8"?>
<!-- Generator: Adobe Illustrator 20.1.0, SVG Export Plug-In . SVG Version: 6.00 Build 0)  -->
<svg version="1.1" id="Layer_1" xmlns="http://www.w3.org/2000/svg" xmlns:xlink="http://www.w3.org/1999/xlink" x="0px" y="0px"
	 viewBox="0 0 14 14" style="enable-background:new 0 0 14 14;" xml:space="preserve">
<style type="text/css">
	.st0{fill:#B8BFCA;}
	.st1{fill:#FFFFFF;}
</style>
<title>HDL/Icon/Standard/Deployment/queued</title>
<desc>Created with Sketch.</desc>
<g id="Colors">
	<g id="Deployment-Icons" transform="translate(-121.000000, -547.000000)">
		<g id="Queued_1_" transform="translate(100.000000, 529.000000)">
			<g id="HDL_x2F_Icon_x2F_Standard_x2F_Deployment_x2F_queued" transform="translate(21.000000, 18.000000)">
				<g id="Queued">
					<path id="Rectangle" class="st0" d="M4,0h6c2.2,0,4,1.8,4,4v6c0,2.2-1.8,4-4,4H4c-2.2,0-4-1.8-4-4V4C0,1.8,1.8,0,4,0z"/>
					<path id="Fill-5" class="st1" d="M6.9,8l0.6-0.8l1,1C8.7,7.8,8.8,7.4,8.8,7c0-1.1-0.8-2.2-1.9-2.2c-1,0-1.8,1-1.8,2.2
						S5.9,9.2,7,9.2c0.3,0,0.7-0.1,1-0.3L6.9,8z M10,9.4l-0.6,0.8L8.7,9.6c-0.5,0.3-1,0.5-1.8,0.5c-1.8,0-3-1.4-3-3.2
						c0-1.7,1.2-3.1,3-3.1S10,5.2,10,7c0,0.7-0.2,1.3-0.6,1.8L10,9.4z"/>
				</g>
			</g>
		</g>
	</g>
</g>
</svg>

<?xml version="1.0" encoding="UTF-8"?>
<svg width="14px" height="14px" viewBox="0 0 14 14" version="1.1" xmlns="http://www.w3.org/2000/svg" xmlns:xlink="http://www.w3.org/1999/xlink">
    <!-- Generator: Sketch 59 (86127) - https://sketch.com -->
    <title>HDL/Icon/Standard/Deployment/queued</title>
    <desc>Created with Sketch.</desc>
    <g id="Colors" stroke="none" stroke-width="1" fill="none" fill-rule="evenodd">
        <g id="Deployment-Icons" transform="translate(-121.000000, -547.000000)">
            <g id="Queued" transform="translate(100.000000, 529.000000)">
                <g id="HDL/Icon/Standard/Deployment/queued" transform="translate(21.000000, 18.000000)">
                    <g id="Queued">
                        <rect id="Rectangle" fill="#B8BFCA" x="0" y="0" width="14" height="14" rx="4"></rect>
                        <path d="M6.9,8 L7.5,7.2 L8.5,8.2 C8.7,7.8 8.8,7.4 8.8,7 C8.8,5.9 8,4.8 6.9,4.8 C5.9,4.8 5.1,5.8 5.1,7 C5.1,8.2 5.9,9.2 7,9.2 C7.3,9.2 7.7,9.1 8,8.9 L6.9,8 Z M10,9.4 L9.4,10.2 L8.7,9.6 C8.2,9.9 7.7,10.1 6.9,10.1 C5.1,10.1 3.9,8.7 3.9,6.9 C3.9,5.2 5.1,3.8 6.9,3.8 C8.7,3.8 10,5.2 10,7 C10,7.7 9.8,8.3 9.4,8.8 L10,9.4 Z" id="Fill-5" fill="#FFFFFF"></path>
                    </g>
                </g>
            </g>
        </g>
    </g>
</svg>
